X:383
%%etbk:tnset id:108,pos:2,rep:3x,ant:
%%etbk:wsite http://www.thesession.org/tunes/display/48
%%etbk:skill ?
%%etbk:pldat 2013-11-13T16:01
T: Hardiman The Fiddler
Z: Piano Box Version by Martin Fleischmann
H: Created 2013-02-19 /  Last Modified 2013-02-19
M: 9/8
L: 1/8
R: slip jig
K: Dmix
|: "D"!2!A2!1!G !3!FDE F2!4!G | !2!A2A {c}AGA !4!cAG | !2!A2!1!G !3!FDE F2!4!G | !2!A!4!dd ded !3!c!2!A!1!G:|
 "D"!1!A!3!d!3!d d2e !5!f!1!A!5!f | !1!A!3!dd ded !2!c!1!A!1!G | !1!A!3!dd d2!4!e !3!f2!4!g | !5!afa !4!g!2!e!1!d !2!c!1!A!1!G |
!1!A!3!d!3!d d2e !5!f2f | !1!A!3!dd ded !2!c!1!A!1!G | !3!dcA !2!cd!4!e !3!f2!4!g | !5!afa !4!ged !2!c!1!A!1!G ||
